X: 4
T: Ned Of The Hill
R: waltz
M: 3/4
L: 1/8
K: Gmaj
(BA)|G2 E3F|G4 G A|B2 g2- g> f|e4 e2|
w:Cé |hé sin a- |muigh a bhfuil |fao-bhar* a|ghuth, ag |
dB-B3A|G3-A B2|(c3 B AG)|E4 BA|
w:réa-badh* mo |dhór-* ais |dún--- |ta? Mi-se|
G2 E3 F|G4 GA|B2 g2 g>-f|e4 e2|
w:Éa- monn an |chnoic a-tá|bái-te fu-ar|fliuch Ó|
d4 (BA)|G3 A B2|A3-G A2|G4 d2||
w:shior- shiúil |sléibh-te is |gleann- |ta. A|
d2 B3 g|d4 d d|e2 f3 e|d4 dd|
w:lao ghil 's~a|chuid cad a|dheán-fainn-se |dhuit mu-ra|
dd-d2 (BA)|G4 A B|(c3 B AG)|E4 By A|
w:gcuir-finn* ort|binn do mo|ghú-|na? 'S~go mbeidh
G2 E3-F|G4 G-A|B2 g2 g> f|e4 e e|
w:pú- dar|dubh á|lá-mhach linn go|tiubh is go|
d4 B A|(G3 A B2)|A4- AG|G6|]
w:mbéi-mís ar-|aon |múch-|ta ||


Tune 6508	Setting 6508

